X:1
T:Evening Hymn, 87.87.87.87 Refrain
T:Caroline Maude, Viscountess Hawarden, 1906
T:Evening Hymn, 87.87.87.87 Refrain
T:Public Domain
T:Public Domain
C:Caroline Maude, Viscountess Hawarden, 1906
Z:Public Domain
%%score ( 1 2 ) ( 3 4 )
L:1/8
M:4/4
K:Eb
V:1 treble 
V:2 treble 
V:3 bass 
V:4 bass 
V:1
 [B,G]2 CD [B,E]2 CD | [B,E]2 [B,F]2 [B,G]2 [B,E]2 | [=B,G]2 EF [DG]2 EG | [EA]2 [DF]2 [EG]4 | %4
 [EB]2 GB [Ec]2 [FB]2 | [EB]2 GB [Ge]2 [Gd]2 | [Gc]2 Ac [FB]2 [EG]2 | [EF]2 G=A [DB]4 | %8
 [B,E]2 CD [B,E]2 CD | [B,E]2 [B,F]2 [B,G]2 [B,E]2 | [=B,G]2 EF [DG]2 EG | [EB]2 [DF]2 [EG]4 | %12
 [EB]2 GB [Ec]2 [FB]2 | [EB]2 GB [Ge]2 [Gd]2 | [Gc]2 Ac [FB]2 [EG]2 | [EF]2 G=A [DB]4 | %16
 [_DE]3 [DF] [CE]2 C[CE] | [EF]2 [EG]2 [DF]3 [DF] | [FG]2 [FA][FG] [EG]2 [Fc]2 | [FB]6 [DB]2 | %20
 [EB]2 [EG][DA] [EB]2 [FG][Ge] | [Fd]3 [EB] [Ec]2 E_D | CDGF [EG]2 [DF]2 | E8 |] %24
V:2
 x2 C2 x C2 x | x8 | x2 C2 x E2 x | x8 | x2 E2 x4 | x2 E2 x4 | x2 F2 x4 | x2 E2 x4 | x2 C2 x C2 x | %9
 x8 | x2 C2 x E2 x | x8 | x2 E2 x4 | x2 E2 x4 | x2 F2 x4 | x2 E2 x4 | x6 C x | x8 | x8 | x8 | x8 | %21
 x6 B2 | A2 E2 x4 | E8 |] %24
V:3
 [E,G,]2 [E,A,]2 [E,G,]2 [E,A,]2 | [E,G,]2 [E,A,]2 [E,B,]2 [E,G,]2 | %2
 [D,G,]2 [C,G,]2 [=B,,G,]2 [C,G,]2 | [B,,G,]2 [B,,B,]2 [E,B,]4 | [E,G,]2 B,G, [C,G,]2 [D,B,]2 | %5
 [E,G,]2 B,G, [C,C]2 [G,=B,]2 | [E,C]2 CA, [D,B,]2 [E,B,]2 | B,=A,B,C B,2 _A,2 | %8
 [E,G,]2 [E,A,]2 [E,G,]2 [E,A,]2 | [E,G,]2 [E,A,]2 [E,B,]2 [E,G,]2 | %10
 [D,G,]2 [C,G,]2 [=B,,G,]2 [C,G,]2 | [B,,G,]2 B,2 [E,B,]4 | [E,G,]2 B,G, [C,G,]2 [D,B,]2 | %13
 [E,G,]2 B,G, [C,C]2 [D,=B,]2 | [E,C]2 CA, [D,B,]2 [E,B,]2 | B,=A,B,C B,2 _A,2 | %16
 [E,G,]3 [E,G,] A,2 [A,C][A,C] | [=A,C]2 [A,C]2 [B,D]3 [B,D] | [=B,D]2 [B,D][B,D] C2 [=A,E]2 | %19
 E2 C2 D2 [A,B,]2 | [G,B,]2 [E,B,][F,B,] [G,B,]2 [E,B,][E,B,] | [F,A,]3 [G,B,] A,2 [E,G,]2 | %22
 [F,A,]2 G,A, B,2 B,A, | [E,G,]8 |] %24
V:4
 x8 | x8 | x8 | x8 | x2 E,2 x4 | x2 E,2 x4 | x2 F,2 x4 | F,2 F,2 B,,4 | x8 | x8 | x8 | x8 | %12
 x2 E,2 x4 | x2 E,2 x4 | x2 F,2 x4 | F,2 F,2 B,,4 | x4 A,2 x2 | x8 | x4 C2 x2 | B,6 x2 | x8 | %21
 x4 A,2 x2 | x2 B,2 B,2 B,,2 | x8 |] %24

